subcellular/assets/icons/svg/hi5.svg

<svg xmlns="http://www.w3.org/2000/svg" xmlns:xlink="http://www.w3.org/1999/xlink" width="32" height="32" viewBox="0 0 32 32"><symbol viewBox="-16.001 -16 32 32"><g><use xlink:href="#_x5F_button_x5F_shape" width="32" height="32" x="-16" y="-16" transform="translate(-.001)" overflow="visible"/><path fill="#999" d="M15.999-12c0-2.209-1.791-4-4-4h-24c-2.209 0-4 1.791-4 4v24c0 2.209 1.791 4 4 4h24c2.209 0 4-1.791 4-4v-24z"/></g><g><use xlink:href="#_x5F_button_x5F_shape" width="32" height="32" x="-16" y="-16" transform="matrix(.938 0 0 .938 -.001 0)" overflow="visible"/><path fill="#F2F2F2" d="M14.999-11.25c0-2.071-1.679-3.75-3.75-3.75h-22.5c-2.071 0-3.75 1.679-3.75 3.75v22.5c0 2.071 1.679 3.75 3.75 3.75h22.5c2.071 0 3.75-1.679 3.75-3.75v-22.5z"/></g></symbol><g><path fill="#999" d="M32 28c0 2.209-1.791 4-4 4h-24c-2.209 0-4-1.791-4-4v-24c0-2.209 1.791-4 4-4h24c2.209 0 4 1.791 4 4v24z"/></g><g><path fill="#F2F2F2" d="M31 27.25c0 2.071-1.679 3.75-3.75 3.75h-22.5c-2.071 0-3.75-1.679-3.75-3.75v-22.5c0-2.071 1.679-3.75 3.75-3.75h22.5c2.071 0 3.75 1.679 3.75 3.75v22.5z"/></g><g><path fill="#999" d="M32 28c0 2.209-1.791 4-4 4h-24c-2.209 0-4-1.791-4-4v-24c0-2.209 1.791-4 4-4h24c2.209 0 4 1.791 4 4v24z"/></g><g><path fill="#F2F2F2" d="M31 27.25c0 2.071-1.679 3.75-3.75 3.75h-22.5c-2.071 0-3.75-1.679-3.75-3.75v-22.5c0-2.071 1.679-3.75 3.75-3.75h22.5c2.071 0 3.75 1.679 3.75 3.75v22.5z"/></g><path d="M32 28c0 2.209-1.791 4-4 4h-24c-2.209 0-4-1.791-4-4v-24c0-2.209 1.791-4 4-4h24c2.209 0 4 1.791 4 4v24zM32 28c0 2.209-1.791 4-4 4h-24c-2.209 0-4-1.791-4-4v-24c0-2.209 1.791-4 4-4h24c2.209 0 4 1.791 4 4v24zM31 27.25c0 2.071-1.679 3.75-3.75 3.75h-22.5c-2.071 0-3.75-1.679-3.75-3.75v-22.5c0-2.071 1.679-3.75 3.75-3.75h22.5c2.071 0 3.75 1.679 3.75 3.75v22.5zM31 27.25c0 2.071-1.679 3.75-3.75 3.75h-22.5c-2.071 0-3.75-1.679-3.75-3.75v-22.5c0-2.071 1.679-3.75 3.75-3.75h22.5c2.071 0 3.75 1.679 3.75 3.75v22.5z"/><path fill="#FDA600" d="M12.168 15.741c0-1.694-1.33-2.039-2.642-2.039-1.199 0-2.585 1.149-2.585 1.149v-4.423h-4.939v1.723h.862v7.065h-.862v2.354h5.227v-2.354h-.459s0-1.207 0-2.126c0-.918 1.867-2.153 1.867-.546 0 .92.028 2.672.028 2.672h-.517v2.354h4.939v-2.354h-.919c0 .001 0-2.326 0-3.475zM15.097 10.486h3.332v2.297h-3.332zM18.343 19.273v-5.571h-4.854v2.298h.891v3.273h-.891v2.298h5.572v-2.298z"/><path fill="#fff" d="M29.055 10.429h-7.927l-.976 4.914 3.087.628s.422-.59 1.019-.574c.526.015 1.121.395 1.121 1.651 0 1.12-.563 1.953-1.58 1.953-1.378 0-.861-.861-.861-1.637 0-1.092-.862-1.191-1.916-.962-.851.186-1.458.888-1.458 1.737 0 1.607 1.968 3.432 4.838 3.432 2.873 0 5.601-1.536 5.601-4.466 0-2.541-1.767-3.761-3.719-3.791-1.306-.02-2.096.23-2.714.646.096-.325.149-.599.201-1.178.746 0 5.227 0 5.227 0l.057-2.353z"/></svg>

<?xml version="1.0" encoding="utf-8"?>
<!-- Generator: Adobe Illustrator 14.0.0, SVG Export Plug-In . SVG Version: 6.00 Build 43363)  -->
<!DOCTYPE svg PUBLIC "-//W3C//DTD SVG 1.1//EN" "http://www.w3.org/Graphics/SVG/1.1/DTD/svg11.dtd">
<svg version="1.1" id="Layer_1" xmlns="http://www.w3.org/2000/svg" xmlns:xlink="http://www.w3.org/1999/xlink" x="0px" y="0px"
	 width="32px" height="32px" viewBox="0 0 32 32" enable-background="new 0 0 32 32" xml:space="preserve">
<path fill="#999999" d="M32,28c0,2.21-1.79,4-4,4H4c-2.21,0-4-1.79-4-4V4c0-2.21,1.79-4,4-4h24c2.21,0,4,1.79,4,4V28z"/>
<path fill="#F2F2F2" d="M31,27.25c0,2.07-1.68,3.75-3.75,3.75H4.75C2.68,31,1,29.32,1,27.25V4.75C1,2.68,2.68,1,4.75,1h22.5
	C29.32,1,31,2.68,31,4.75V27.25z"/>
<path fill="#999999" d="M32,28c0,2.21-1.79,4-4,4H4c-2.21,0-4-1.79-4-4V4c0-2.21,1.79-4,4-4h24c2.21,0,4,1.79,4,4V28z"/>
<path fill="#F2F2F2" d="M31,27.25c0,2.07-1.68,3.75-3.75,3.75H4.75C2.68,31,1,29.32,1,27.25V4.75C1,2.68,2.68,1,4.75,1h22.5
	C29.32,1,31,2.68,31,4.75V27.25z"/>
<path d="M32,28c0,2.21-1.79,4-4,4H4c-2.21,0-4-1.79-4-4V4c0-2.21,1.79-4,4-4h24c2.21,0,4,1.79,4,4V28z M32,28c0,2.21-1.79,4-4,4H4
	c-2.21,0-4-1.79-4-4V4c0-2.21,1.79-4,4-4h24c2.21,0,4,1.79,4,4V28z M31,27.25c0,2.07-1.68,3.75-3.75,3.75H4.75
	C2.68,31,1,29.32,1,27.25V4.75C1,2.68,2.68,1,4.75,1h22.5C29.32,1,31,2.68,31,4.75V27.25z M31,27.25c0,2.07-1.68,3.75-3.75,3.75
	H4.75C2.68,31,1,29.32,1,27.25V4.75C1,2.68,2.68,1,4.75,1h22.5C29.32,1,31,2.68,31,4.75V27.25z"/>
<path fill="#FDA600" d="M12.168,15.74c0-1.693-1.33-2.038-2.642-2.038c-1.2,0-2.585,1.15-2.585,1.15v-4.424H2.008v1.723H2.87v7.07
	H2.007v2.355H7.23V19.22H6.77c0,0,0-1.208,0-2.127c0-0.917,1.867-2.152,1.867-0.545c0,0.92,0.028,2.672,0.028,2.672H8.148v2.354
	h4.94V19.22h-0.92c0,0,0-2.325,0-3.474V15.74z M15.098,10.486h3.33v2.297H15.1L15.098,10.486z M18.343,19.273v-5.57H13.49V16h0.89
	v3.273h-0.89v2.298h5.57V19.28L18.343,19.273z"/>
<path fill="#FFFFFF" d="M29.055,10.43h-7.927l-0.976,4.913l3.087,0.628c0,0,0.42-0.59,1.013-0.57c0.525,0.017,1.12,0.397,1.12,1.65
	c0,1.12-0.562,1.956-1.58,1.956c-1.377,0-0.86-0.86-0.86-1.636c0-1.093-0.861-1.19-1.916-0.963c-0.85,0.186-1.457,0.888-1.457,1.736
	c0,1.607,1.967,3.431,4.836,3.431c2.875,0,5.601-1.534,5.601-4.464c0-2.54-1.765-3.76-3.716-3.79
	c-1.305-0.021-2.096,0.229-2.713,0.644c0.095-0.324,0.149-0.6,0.199-1.177c0.746,0,5.228,0,5.228,0l0.057-2.353L29.055,10.43z"/>
</svg>
